packages/components/src/components/icon/cashier/ic-cashier-tether-dark.svg

<svg width="40" height="25" viewBox="0 0 40 25" fill="none" xmlns="http://www.w3.org/2000/svg">
<path d="M8.29685 12.3223V11.6175C7.26813 11.6632 6.50024 11.844 6.50024 12.0591C6.50024 12.2757 7.26766 12.456 8.29685 12.5017V12.5012C8.36323 12.5045 8.55061 12.5116 8.81803 12.5116H8.89807C9.17726 12.5106 9.30579 12.5031 9.33263 12.5012V12.5022C10.359 12.456 11.1255 12.2757 11.1255 12.0606C11.1255 11.8444 10.3599 11.6646 9.33263 11.618V12.3223C9.33135 12.3224 9.32982 12.3225 9.32805 12.3227C9.28888 12.3259 9.12954 12.3388 8.82321 12.3388C8.55673 12.3388 8.3637 12.327 8.29685 12.3223Z" fill="white"/>
<path fill-rule="evenodd" clip-rule="evenodd" d="M13.3152 12.0563L11.738 8.61328H5.95268L4.375 12.0558L8.84534 16.5582L13.3152 12.0563ZM6.86464 9.95321H10.7648V10.9146H9.33216V11.545L9.33263 11.546C10.4955 11.5996 11.3693 11.8322 11.3693 12.11C11.3693 12.3882 10.4955 12.6203 9.33263 12.6745V14.6952H8.29685V12.6745C7.133 12.6199 6.25683 12.3878 6.25683 12.1095C6.25683 11.8308 7.13253 11.5992 8.29685 11.5455V10.9146H6.86464V9.95321Z" fill="white"/>
<path d="M16.6773 11.2355V10.2158H16.6768L15.7955 10.3109V11.2351H15.1302V12.0001H15.7955V13.5514C15.7955 14.4474 16.3016 14.8914 17.0751 14.8622C17.343 14.8546 17.553 14.8109 17.8058 14.7092L17.5596 13.9521C17.4296 14.0175 17.2705 14.0613 17.133 14.0613C16.8581 14.0613 16.6702 13.8937 16.6702 13.5514V12.0006H17.6608V11.2355H16.6773Z" fill="white"/>
<path d="M33.7018 11.6018L33.6368 11.1875L32.8195 11.1861V14.7765H33.7018V12.8829C33.7018 12.2205 34.1283 11.9728 34.5916 11.9728C34.8807 11.9728 35.0464 12.0533 35.2272 12.2063L35.625 11.4342C35.4301 11.2384 35.0756 11.0924 34.7069 11.0924C34.3454 11.0924 33.9767 11.1578 33.7018 11.6018Z" fill="white"/>
<path fill-rule="evenodd" clip-rule="evenodd" d="M30.6001 14.0637C29.9781 14.0637 29.5949 13.7431 29.537 13.2986H32.3209C32.4583 11.8207 31.7131 11.0778 30.52 11.0778C29.3628 11.0778 28.625 11.8645 28.625 12.9568C28.625 14.1075 29.3562 14.8721 30.585 14.8721C31.1278 14.8721 31.7422 14.6823 32.1184 14.2892L31.5549 13.7285C31.3519 13.9394 30.9249 14.0637 30.6001 14.0637ZM30.5492 11.8636C31.0553 11.8636 31.4169 12.0971 31.4748 12.5632H29.5511C29.6815 12.0971 30.0723 11.8636 30.5492 11.8636Z" fill="white"/>
<path d="M25.6471 11.6743V9.6795L24.7648 9.67997V14.7779H25.6471V12.9422C25.6471 12.4031 26.0083 11.9592 26.5294 11.9592C26.9993 11.9592 27.3392 12.2355 27.3392 12.8914V14.7765H28.2215V12.8834C28.2215 11.8273 27.7729 11.1352 26.7606 11.1352C26.3557 11.1352 25.9654 11.2591 25.6471 11.6743Z" fill="white"/>
<path d="M23.3044 11.1936V10.1753L22.4226 10.2704V11.1941H21.7573V11.9592H22.4226V13.5095C22.4226 14.4045 22.9287 14.8495 23.7027 14.8203C23.9701 14.8132 24.1801 14.769 24.4329 14.6673L24.1872 13.9102C24.0567 13.9756 23.8976 14.0194 23.7601 14.0194C23.4857 14.0194 23.2973 13.8523 23.2973 13.5095V11.9587H24.2879V11.1936H23.3044Z" fill="white"/>
<path fill-rule="evenodd" clip-rule="evenodd" d="M19.9927 14.0642C19.3708 14.0642 18.9871 13.7435 18.9296 13.2991H21.7126C21.8496 11.8212 21.1052 11.0783 19.9122 11.0783C18.7554 11.0783 18.0177 11.865 18.0177 12.9573C18.0177 14.1079 18.7479 14.8725 19.9777 14.8725C20.5205 14.8725 21.1344 14.6828 21.5111 14.2897L20.9471 13.7289C20.7446 13.9399 20.3176 14.0642 19.9927 14.0642ZM19.9419 11.8641C20.448 11.8641 20.8096 12.0976 20.8675 12.5637H18.9438C19.0737 12.0976 19.4649 11.8641 19.9419 11.8641Z" fill="white"/>
</svg>

<svg width="40" height="25" fill="none" xmlns="http://www.w3.org/2000/svg"><path d="M8.297 12.322v-.704c-1.029.045-1.797.226-1.797.441 0 .217.768.397 1.797.443.066.002.254.01.521.01h.08c.28-.001.408-.009.435-.01 1.026-.046 1.793-.226 1.793-.441 0-.217-.766-.396-1.793-.443v.704h-.005a7.762 7.762 0 01-1.031 0z" fill="#fff"/><path fill-rule="evenodd" clip-rule="evenodd" d="M13.315 12.056l-1.577-3.443H5.953l-1.578 3.443 4.47 4.502 4.47-4.502zm-6.45-2.103h3.9v.962H9.332v.631c1.163.054 2.037.286 2.037.564 0 .278-.873.51-2.036.565v2.02H8.297v-2.02c-1.164-.055-2.04-.287-2.04-.566 0-.278.876-.51 2.04-.563v-.631H6.865v-.962z" fill="#fff"/><path d="M16.677 11.236v-1.02l-.881.095v.924h-.666V12h.665v1.551c0 .896.507 1.34 1.28 1.311a1.97 1.97 0 00.73-.153l-.245-.757c-.13.066-.29.11-.427.11-.275 0-.463-.168-.463-.51V12h.99v-.765h-.983zM33.702 11.602l-.065-.415h-.818v3.59h.883v-1.894c0-.662.426-.91.89-.91.289 0 .454.08.635.233l.398-.772c-.195-.196-.55-.342-.918-.342-.362 0-.73.066-1.005.51z" fill="#fff"/><path fill-rule="evenodd" clip-rule="evenodd" d="M30.6 14.064c-.622 0-1.005-.32-1.063-.765h2.784c.137-1.478-.608-2.221-1.801-2.221-1.157 0-1.895.787-1.895 1.879 0 1.15.731 1.915 1.96 1.915.543 0 1.157-.19 1.533-.583l-.563-.56c-.203.21-.63.335-.955.335zm-.05-2.2c.505 0 .867.233.925.7H29.55c.13-.467.521-.7.998-.7z" fill="#fff"/><path d="M25.647 11.674V9.68h-.882v5.098h.882v-1.836c0-.539.361-.983.882-.983.47 0 .81.277.81.932v1.886h.883v-1.894c0-1.056-.45-1.748-1.461-1.748-.405 0-.796.124-1.114.54zM23.304 11.194v-1.019l-.881.095v.924h-.666v.765h.666v1.55c0 .896.506 1.34 1.28 1.311.267-.007.477-.051.73-.153l-.246-.757c-.13.066-.29.11-.427.11-.274 0-.463-.168-.463-.51v-1.551h.99v-.765h-.983z" fill="#fff"/><path fill-rule="evenodd" clip-rule="evenodd" d="M19.993 14.064c-.622 0-1.006-.32-1.063-.765h2.783c.137-1.478-.608-2.22-1.8-2.22-1.158 0-1.895.786-1.895 1.878 0 1.15.73 1.915 1.96 1.915.542 0 1.156-.19 1.533-.582l-.564-.561c-.202.21-.63.335-.954.335zm-.051-2.2c.506 0 .868.234.925.7h-1.923c.13-.466.52-.7.998-.7z" fill="#fff"/></svg>
